Sweet-Rainbow/icons/terminix.svg

<?xml version="1.0" encoding="UTF-8" standalone="no"?>
<!-- Generator: Gravit.io -->

<svg
   xmlns:dc="http://purl.org/dc/elements/1.1/"
   xmlns:cc="http://creativecommons.org/ns#"
   xmlns:rdf="http://www.w3.org/1999/02/22-rdf-syntax-ns#"
   xmlns:svg="http://www.w3.org/2000/svg"
   xmlns="http://www.w3.org/2000/svg"
   xmlns:sodipodi="http://sodipodi.sourceforge.net/DTD/sodipodi-0.dtd"
   xmlns:inkscape="http://www.inkscape.org/namespaces/inkscape"
   style="isolation:isolate"
   viewBox="0 0 48 48"
   width="48"
   height="48"
   version="1.1"
   id="svg34"
   sodipodi:docname="terminix.svg"
   inkscape:version="0.92.4 (5da689c313, 2019-01-14)">
  <metadata
     id="metadata38">
    <rdf:RDF>
      <cc:Work
         rdf:about="">
        <dc:format>image/svg+xml</dc:format>
        <dc:type
           rdf:resource="http://purl.org/dc/dcmitype/StillImage" />
        <dc:title></dc:title>
      </cc:Work>
    </rdf:RDF>
  </metadata>
  <sodipodi:namedview
     pagecolor="#ffffff"
     bordercolor="#666666"
     borderopacity="1"
     objecttolerance="10"
     gridtolerance="10"
     guidetolerance="10"
     inkscape:pageopacity="0"
     inkscape:pageshadow="2"
     inkscape:window-width="640"
     inkscape:window-height="480"
     id="namedview36"
     showgrid="false"
     inkscape:zoom="39.153656"
     inkscape:cx="18.994082"
     inkscape:cy="24"
     inkscape:current-layer="svg34" />
  <defs
     id="defs5">
    <clipPath
       id="_clipPath_sWJf5PPI9nMkaTYBsuLtZbgui8RQyleM">
      <rect
         width="48"
         height="48"
         id="rect2"
         x="0"
         y="0" />
    </clipPath>
    <linearGradient
       gradientUnits="userSpaceOnUse"
       gradientTransform="matrix(0,-48,48,0,-0.06,48.47)"
       y2="1.016875"
       x2="0.43687499"
       y1="-0.076875001"
       x1="0.45249999"
       id="_lgradient_3">
      <stop
         id="stop7"
         style="stop-color:rgb(198,255,221)"
         stop-opacity="1"
         offset="0%" />
      <stop
         id="stop9"
         style="stop-color:rgb(251,215,134)"
         stop-opacity="1"
         offset="50%" />
      <stop
         id="stop11"
         style="stop-color:rgb(247,121,125)"
         stop-opacity="1"
         offset="100%" />
    </linearGradient>
    <linearGradient
       gradientUnits="userSpaceOnUse"
       gradientTransform="matrix(20.968,0,0,13.685,13.456,18.127)"
       y2="0.5"
       x2="1"
       y1="0.5"
       x1="9.5045692e-07"
       id="_lgradient_4">
      <stop
         id="stop16"
         style="stop-color:rgb(198,255,221)"
         stop-opacity="1"
         offset="0%" />
      <stop
         id="stop18"
         style="stop-color:rgb(251,215,134)"
         stop-opacity="1"
         offset="50%" />
      <stop
         id="stop20"
         style="stop-color:rgb(247,121,125)"
         stop-opacity="1"
         offset="100%" />
    </linearGradient>
    <linearGradient
       gradientUnits="userSpaceOnUse"
       gradientTransform="scale(1.2100919,0.82638354)"
       y2="27.456915"
       x2="34.482738"
       y1="27.456915"
       x1="6.1839199"
       id="_lgradient_5">
      <stop
         id="stop23"
         style="stop-color:rgb(198,255,221)"
         stop-opacity="1"
         offset="0%" />
      <stop
         id="stop25"
         style="stop-color:rgb(251,215,134)"
         stop-opacity="1"
         offset="50%" />
      <stop
         id="stop27"
         style="stop-color:rgb(247,121,125)"
         stop-opacity="1"
         offset="100%" />
    </linearGradient>
  </defs>
  <g
     id="g861"
     transform="translate(0.06,-0.47)">
    <path
       d="m 40.7,13.56 v 0 c -0.607,-0.927 -0.349,-2.168 0.575,-2.77 v 0 c 0.924,-0.602 2.168,-0.342 2.775,0.58 v 0 c 2.54,3.9 3.89,8.45 3.89,13.1 0,6.37 -2.53,12.48 -7.03,16.97 -4.5,4.5 -10.61,7.03 -16.97,7.03 -6.36,0 -12.47,-2.53 -16.97,-7.03 C 2.47,36.95 -0.06,30.84 -0.06,24.47 -0.06,18.11 2.47,12 6.97,7.5 11.47,3 17.58,0.47 23.94,0.47 c 3.42,0 6.8,0.73 9.92,2.15 v 0 c 1.004,0.458 1.45,1.646 0.995,2.65 v 0 C 34.4,6.274 33.214,6.718 32.21,6.26 v 0 c -2.6,-1.18 -5.42,-1.79 -8.27,-1.79 -5.3,0 -10.39,2.11 -14.14,5.86 -3.75,3.75 -5.86,8.84 -5.86,14.14 0,5.31 2.11,10.4 5.86,14.15 3.75,3.75 8.84,5.85 14.14,5.85 5.3,0 10.39,-2.1 14.14,-5.85 3.75,-3.75 5.86,-8.84 5.86,-14.15 0,-3.87 -1.13,-7.66 -3.24,-10.91 z"
       id="path14"
       style="fill:url(#_lgradient_3)"
       inkscape:connector-curvature="0" />
    <path
       d="m 15.356,18.127 c -0.384,0.006 -0.722,0.254 -0.842,0.618 -0.12,0.364 0.004,0.765 0.308,0.998 l 5.965,4.722 -6.965,5.723 c -0.265,0.195 -0.402,0.519 -0.358,0.845 0.044,0.327 0.263,0.603 0.57,0.72 0.308,0.118 0.655,0.058 0.906,-0.155 l 7.857,-6.428 c 0.216,-0.17 0.342,-0.431 0.342,-0.706 0,-0.275 -0.126,-0.535 -0.342,-0.706 L 15.94,18.33 c -0.165,-0.134 -0.372,-0.206 -0.584,-0.203 z m 9.882,10.885 c -0.497,0 -0.9,0.403 -0.9,0.9 0,0.498 0.403,0.901 0.9,0.901 h 8.286 c 0.497,0 0.9,-0.403 0.9,-0.901 0,-0.497 -0.403,-0.9 -0.9,-0.9 z"
       stroke-miterlimit="4"
       id="path30"
       style="vector-effect:non-scaling-stroke;fill:url(#_lgradient_4);fill-rule:evenodd;stroke:url(#_lgradient_5);stroke-width:2;stroke-linecap:round;stroke-linejoin:round;stroke-miterlimit:4"
       inkscape:connector-curvature="0" />
  </g>
</svg>

<?xml version="1.0" standalone="no"?><!-- Generator: Gravit.io --><svg xmlns="http://www.w3.org/2000/svg" xmlns:xlink="http://www.w3.org/1999/xlink" style="isolation:isolate" viewBox="0 0 48 48" width="48" height="48"><defs><clipPath id="_clipPath_sWJf5PPI9nMkaTYBsuLtZbgui8RQyleM"><rect width="48" height="48"/></clipPath></defs><g clip-path="url(#_clipPath_sWJf5PPI9nMkaTYBsuLtZbgui8RQyleM)"><linearGradient id="_lgradient_3" x1="0.4524999999999999" y1="-0.07687500000000008" x2="0.43687499999999996" y2="1.0168749999999998" gradientTransform="matrix(0,-48,48,0,-0.06,48.47)" gradientUnits="userSpaceOnUse"><stop offset="0%" stop-opacity="1" style="stop-color:rgb(198,255,221)"/><stop offset="50%" stop-opacity="1" style="stop-color:rgb(251,215,134)"/><stop offset="100%" stop-opacity="1" style="stop-color:rgb(247,121,125)"/></linearGradient><path d=" M 40.7 13.56 L 40.7 13.56 C 40.093 12.633 40.351 11.392 41.275 10.79 L 41.275 10.79 C 42.199 10.188 43.443 10.448 44.05 11.37 L 44.05 11.37 C 46.59 15.27 47.94 19.82 47.94 24.47 C 47.94 30.84 45.41 36.95 40.91 41.44 C 36.41 45.94 30.3 48.47 23.94 48.47 C 17.58 48.47 11.47 45.94 6.97 41.44 C 2.47 36.95 -0.06 30.84 -0.06 24.47 C -0.06 18.11 2.47 12 6.97 7.5 C 11.47 3 17.58 0.47 23.94 0.47 C 27.36 0.47 30.74 1.2 33.86 2.62 L 33.86 2.62 C 34.864 3.078 35.31 4.266 34.855 5.27 L 34.855 5.27 C 34.4 6.274 33.214 6.718 32.21 6.26 L 32.21 6.26 C 29.61 5.08 26.79 4.47 23.94 4.47 C 18.64 4.47 13.55 6.58 9.8 10.33 C 6.05 14.08 3.94 19.17 3.94 24.47 C 3.94 29.78 6.05 34.87 9.8 38.62 C 13.55 42.37 18.64 44.47 23.94 44.47 C 29.24 44.47 34.33 42.37 38.08 38.62 C 41.83 34.87 43.94 29.78 43.94 24.47 C 43.94 20.6 42.81 16.81 40.7 13.56 Z " fill="url(#_lgradient_3)"/><linearGradient id="_lgradient_4" x1="9.504568979634698e-7" y1="0.5000000170061136" x2="0.9999999736396193" y2="0.5000000170061136" gradientTransform="matrix(20.968,0,0,13.685,13.456,18.127)" gradientUnits="userSpaceOnUse"><stop offset="0%" stop-opacity="1" style="stop-color:rgb(198,255,221)"/><stop offset="50%" stop-opacity="1" style="stop-color:rgb(251,215,134)"/><stop offset="100%" stop-opacity="1" style="stop-color:rgb(247,121,125)"/></linearGradient><linearGradient id="_lgradient_5" x1="-0.2165141073851897" y1="0.35467064984064844" x2="1.2744376217694584" y2="0.35467064984064844"><stop offset="0%" stop-opacity="1" style="stop-color:rgb(198,255,221)"/><stop offset="50%" stop-opacity="1" style="stop-color:rgb(251,215,134)"/><stop offset="100%" stop-opacity="1" style="stop-color:rgb(247,121,125)"/></linearGradient><path d=" M 15.356 18.127 C 14.972 18.133 14.634 18.381 14.514 18.745 C 14.394 19.109 14.518 19.51 14.822 19.743 L 20.787 24.465 L 13.822 30.188 C 13.557 30.383 13.42 30.707 13.464 31.033 C 13.508 31.36 13.727 31.636 14.034 31.753 C 14.342 31.871 14.689 31.811 14.94 31.598 L 22.797 25.17 C 23.013 25 23.139 24.739 23.139 24.464 C 23.139 24.189 23.013 23.929 22.797 23.758 L 15.94 18.33 C 15.775 18.196 15.568 18.124 15.356 18.127 Z  M 25.238 29.012 C 24.741 29.012 24.338 29.415 24.338 29.912 C 24.338 30.41 24.741 30.813 25.238 30.813 L 33.524 30.813 C 34.021 30.813 34.424 30.41 34.424 29.912 C 34.424 29.415 34.021 29.012 33.524 29.012 L 25.238 29.012 Z " fill-rule="evenodd" fill="url(#_lgradient_4)" vector-effect="non-scaling-stroke" stroke-width="2" stroke="url(#_lgradient_5)" stroke-linejoin="round" stroke-linecap="round" stroke-miterlimit="4"/></g></svg>
